X:31
T:Christmas Eve
R:reel
C:Tommy Coen (1910-1974)
Z:id:hn-reel-31
M:C|
K:G
DB,DE ~G3A|B2dB ABGA|BAGE DB,DE|G2BG ABGE|
DB,DE ~G3A|B2dB ABGA|BAGE G2BG|1 ABGE ~G3E:|2 ABGE ~G3A||
|:BABd edeg|a2ge g2eg|a2ge ~g3e|dedB A2GA|
BABd edeg|bage g2eg|a2ge dBGB|ABGE ~G3A:|
|:BG~G2 DGBd|eg~g2 egdc|BG~G2 DGBG|AGAB A2GA|
BG~G2 DGBd|eg~g2 dega|bgag edBG|1 ABGE ~G3A:|2 ABGE ~G3E||
<end>
<start>
